X:3885
L:1/8
Q:3/8=100
M:6/8
K:G
 d |"_start and end of tune missing" g2 g fef | gfe def | g2 g fef | g3 G2 d | gag fef | gfe def | 
 gag fef | g3- g2 |]

